packages/svg/right_outline.svg

<svg id="a" xmlns="http://www.w3.org/2000/svg" width="24" height="24" viewBox="0 0 24 24"><path d="m12,2C6.5,2,2,6.5,2,12s4.5,10,10,10,10-4.5,10-10S17.5,2,12,2Zm0,18c-4.4,0-8-3.6-8-8S7.6,4,12,4s8,3.6,8,8-3.6,8-8,8Zm2-13h-5v10h2v-4h1.5l1.5,4h2l-1.61-4.04c.92-.18,1.61-.99,1.61-1.96v-2c0-1.1-.9-2-2-2Zm0,4h-3v-2h3v2Z"/></svg>

<svg width="24" height="24" viewBox="0 0 24 24" fill="none" xmlns="http://www.w3.org/2000/svg">
<path d="M12 4C16.4 4 20 7.6 20 12C20 16.4 16.4 20 12 20C7.6 20 4 16.4 4 12C4 7.6 7.6 4 12 4ZM12 2C6.5 2 2 6.5 2 12C2 17.5 6.5 22 12 22C17.5 22 22 17.5 22 12C22 6.5 17.5 2 12 2Z"/>
<path fill-rule="evenodd" clip-rule="evenodd" d="M14 7H9V17H11V13H12.5L14 17H16L14.3852 12.9629C15.3054 12.7834 16 11.9728 16 11V9C16 7.89543 15.1046 7 14 7ZM14 9H11V11H14V9Z"/>
</svg>
